X: 3
T: The Rolling Waves
R: jig
M: 6/8
L: 1/8
K: Dmaj
|:F2E EDE|F2D DED|F2E EFA|d2e fdA|
|F2E EDE|F2D DED|F2E EFA|BAB d2d:|
|:ABd e2 f|d2c B2A|ABd e2 f|dBA B2B|
|ABd ede|fdB BAF|AFE EFA|BAB d2d:|


Tune 515	Setting 25968

